svg/file/folders_line.svg

<?xml version="1.0" encoding="UTF-8"?>
<svg width="24px" height="24px" viewBox="0 0 24 24" version="1.1" xmlns="http://www.w3.org/2000/svg" xmlns:xlink="http://www.w3.org/1999/xlink">
    <title>folders_line</title>
    <g id="Icon" stroke="none" stroke-width="1" fill="none" fill-rule="evenodd">
        <g id="File" transform="translate(-432.000000, -384.000000)" fill-rule="nonzero">
            <g id="folders_line" transform="translate(432.000000, 384.000000)">
                <path d="M24,0 L24,24 L0,24 L0,0 L24,0 Z M12.5935,23.2578 L12.5819,23.2595 L12.5109,23.295 L12.4919,23.2987 L12.4767,23.295 L12.4057,23.2595 C12.3958,23.2564 12.387,23.259 12.3821,23.2649 L12.378,23.2758 L12.3609,23.7031 L12.3659,23.7235 L12.3769,23.7357 L12.4805,23.8097 L12.4953,23.8136 L12.5071,23.8097 L12.6107,23.7357 L12.6233,23.7197 L12.6267,23.7031 L12.6096,23.2758 C12.6076,23.2657 12.601,23.2593 12.5935,23.2578 Z M12.8584,23.1453 L12.8445,23.1473 L12.6598,23.2397 L12.6499,23.2499 L12.6472,23.2611 L12.6651,23.6906 L12.6699,23.7034 L12.6784,23.7105 L12.8793,23.8032 C12.8914,23.8069 12.9022,23.803 12.9078,23.7952 L12.9118,23.7812 L12.8777,23.1665 C12.8753,23.1546 12.8674,23.147 12.8584,23.1453 Z M12.143,23.1473 C12.1332,23.1424 12.1222,23.1453 12.1156,23.1526 L12.1099,23.1665 L12.0758,23.7812 C12.0751,23.7927 12.0828,23.8019 12.0926,23.8046 L12.1083,23.8032 L12.3092,23.7105 L12.3186,23.7024 L12.3225,23.6906 L12.3404,23.2611 L12.3372,23.2485 L12.3278,23.2397 L12.143,23.1473 Z" id="MingCute"></path>
                <path d="M12.5194,3 C13.06615,3 13.586332,3.2237058 13.9615564,3.61430643 L14.0811,3.75061 L15.4806,5.5 L20,5.5 C21.0543909,5.5 21.9181678,6.31587733 21.9945144,7.35073759 L22,7.5 L22,15 C22,16.0543909 21.18415,16.9181678 20.1492661,16.9945144 L20,17 L18,17 L18,19 C18,20.0543909 17.18415,20.9181678 16.1492661,20.9945144 L16,21 L4,21 C2.94563773,21 2.08183483,20.18415 2.00548573,19.1492661 L2,19 L2,9 C2,7.94563773 2.81587733,7.08183483 3.85073759,7.00548573 L4,7 L6,7 L6,5 C6,3.94563773 6.81587733,3.08183483 7.85073759,3.00548573 L8,3 L12.5194,3 Z M8.51938,9 L4,9 L4,19 L16,19 L16,11.5 L11.4806,11.5 C10.8731,11.5 10.2984,11.2238 9.91889,10.7494 L8.51938,9 Z M12.5194,5 L8,5 L8,7 L8.51938,7 C9.12694,7 9.70157,7.27618 10.0811,7.75061 L11.4806,9.5 L16,9.5 C17.1046,9.5 18,10.3954 18,11.5 L18,15 L20,15 L20,7.5 L15.4806,7.5 C14.8731,7.5 14.2984,7.22382 13.9189,6.74939 L12.5194,5 Z" id="形状" fill="#09244B"></path>
            </g>
        </g>
    </g>
</svg>

<svg xmlns="http://www.w3.org/2000/svg" width="24" height="24"><g fill="none" fill-rule="nonzero"><path d="M24 0v24H0V0h24ZM12.594 23.258l-.012.002-.071.035-.02.004-.014-.004-.071-.036c-.01-.003-.019 0-.024.006l-.004.01-.017.428.005.02.01.013.104.074.015.004.012-.004.104-.074.012-.016.004-.017-.017-.427c-.002-.01-.009-.017-.016-.018Zm.264-.113-.014.002-.184.093-.01.01-.003.011.018.43.005.012.008.008.201.092c.012.004.023 0 .029-.008l.004-.014-.034-.614c-.003-.012-.01-.02-.02-.022Zm-.715.002a.023.023 0 0 0-.027.006l-.006.014-.034.614c0 .012.007.02.017.024l.015-.002.201-.093.01-.008.003-.011.018-.43-.003-.012-.01-.01-.184-.092Z"/><path fill="#09244B" d="M12.52 3a2 2 0 0 1 1.442.614l.12.137L15.48 5.5H20a2 2 0 0 1 1.995 1.85L22 7.5V15a2 2 0 0 1-1.85 1.995L20 17h-2v2a2 2 0 0 1-1.85 1.995L16 21H4a2 2 0 0 1-1.995-1.85L2 19V9a2 2 0 0 1 1.85-1.995L4 7h2V5a2 2 0 0 1 1.85-1.995L8 3h4.52Zm-4 6H4v10h12v-7.5h-4.52a2 2 0 0 1-1.561-.75L8.519 9Zm4-4H8v2h.52a2 2 0 0 1 1.561.75l1.4 1.75H16a2 2 0 0 1 2 2V15h2V7.5h-4.52a2 2 0 0 1-1.561-.75L12.519 5Z"/></g></svg>
